icons/Color/scalable/gimp-hchain.svg

<svg height="24" viewBox="0 0 24 24" width="24" xmlns="http://www.w3.org/2000/svg" xmlns:xlink="http://www.w3.org/1999/xlink"><linearGradient id="a"><stop offset="0" stop-color="#888a85"/><stop offset=".5" stop-color="#eeeeec"/><stop offset="1" stop-color="#cecec8"/></linearGradient><linearGradient id="b" gradientTransform="matrix(1.6044074 0 0 1.5859698 -1.473434 -9.052968)" gradientUnits="userSpaceOnUse" x1="7.461398" x2="9.334128" xlink:href="#a" y1="8.230274" y2="8.230274"/><linearGradient id="c" gradientTransform="matrix(.70828848 0 0 .55938517 11.473979 -.10075)" gradientUnits="userSpaceOnUse" x1="-16.120106" x2="-.81032" xlink:href="#a" y1=".468941" y2="12.572748"/><g transform="matrix(0 -1 1 0 8.049608 23.950392)"><path d="m0-7.997606h24v23.895996h-24z" opacity="0"/><g stroke="#555753"><path d="m8.3476562.43374531s-1.577383.0639087-2.0585937.48242188c-.8964841.77968011-.7636719 2.90414531-.7636719 2.90414531s-.1159983 2.2652449.7636719 3.0214844c.4952643.4257715 2.109375.4824219 2.109375.4824219 0-.0000001 1.7641675-.02518 2.3125005-.4824219.835865-.6970091.738281-2.8203125.738281-2.8203125s.222677-2.2847032-.738281-3.10531721c-.552556-.47185682-2.3632818-.48242188-2.3632818-.48242188zm-1.1383664 1.80664069h2.5716451v3.2967234h-2.5716451z" fill="url(#c)" stroke-width=".475804" transform="matrix(1.55542455513 0 0 1.45429592292 -1.21350635725 -7.99765924464)"/><path d="m8.3476562.23632812s-1.577383.0639087-2.0585937.48242188c-.8964841.7796801-.7636719 3.1015625-.7636719 3.1015625s-.1159983 2.0678277.7636719 2.8240672c.4952643.4257715 2.109375.4824219 2.109375.4824219 0-.0000001 1.7641675-.02518 2.3125005-.4824219.835865-.6970091.738281-2.6228953.738281-2.6228953s.222677-2.4821204-.738281-3.3027344c-.552556-.47185682-2.3632818-.48242188-2.3632818-.48242188zm-1.1383664 1.80664068h2.5716451v3.2967234h-2.5716451z" fill="url(#c)" stroke-width=".475804" transform="matrix(1.55542455513 0 0 1.45429592292 -1.21350635725 5.00235175536)"/><path d="m10.89879-1.10121h2.202419v10.202419h-2.202419z" fill="url(#b)" stroke-linejoin="round" stroke-width=".797581"/></g></g></svg>

<?xml version="1.0" encoding="UTF-8" standalone="no"?>
<!-- Created with Inkscape (http://www.inkscape.org/) -->

<svg
   xmlns:dc="http://purl.org/dc/elements/1.1/"
   xmlns:cc="http://creativecommons.org/ns#"
   xmlns:rdf="http://www.w3.org/1999/02/22-rdf-syntax-ns#"
   xmlns:svg="http://www.w3.org/2000/svg"
   xmlns="http://www.w3.org/2000/svg"
   xmlns:xlink="http://www.w3.org/1999/xlink"
   xmlns:sodipodi="http://sodipodi.sourceforge.net/DTD/sodipodi-0.dtd"
   xmlns:inkscape="http://www.inkscape.org/namespaces/inkscape"
   inkscape:export-ydpi="90.000000"
   inkscape:export-xdpi="90.000000"
   inkscape:export-filename="/home/jimmac/src/cvs/gnome/gimp/themes/Default/images/stock-layers-16.png"
   width="24"
   height="24"
   id="svg11300"
   sodipodi:version="0.32"
   inkscape:version="0.92.3 (2405546, 2018-03-11)"
   sodipodi:docname="gimp-hchain.svg"
   version="1.0"
   viewBox="0 0 24 24">
  <sodipodi:namedview
     inkscape:cy="11.200729"
     inkscape:cx="10.929543"
     inkscape:zoom="27.864563"
     inkscape:window-height="752"
     inkscape:window-width="1440"
     inkscape:pageshadow="2"
     inkscape:pageopacity="0.0"
     borderopacity="0.17254902"
     bordercolor="#666"
     pagecolor="#ffffff"
     id="base"
     inkscape:showpageshadow="false"
     showborder="true"
     inkscape:window-x="307"
     inkscape:window-y="128"
     inkscape:current-layer="layer1"
     width="16px"
     height="16px"
     showgrid="true"
     inkscape:window-maximized="0"
     inkscape:document-units="px"
     inkscape:snap-global="false">
    <inkscape:grid
       type="xygrid"
       id="grid4383" />
  </sodipodi:namedview>
  <defs
     id="defs3">
    <linearGradient
       id="linearGradient3473">
      <stop
         id="stop3475"
         offset="0"
         style="stop-color:#888a85;stop-opacity:1" />
      <stop
         id="stop3481"
         offset="0.5"
         style="stop-color:#eeeeec;stop-opacity:1;" />
      <stop
         id="stop3477"
         offset="1"
         style="stop-color:#cecec8;stop-opacity:1;" />
    </linearGradient>
    <linearGradient
       inkscape:collect="always"
       xlink:href="#linearGradient3473"
       id="linearGradient4397"
       x1="7.4613976"
       y1="8.2302742"
       x2="9.3341284"
       y2="8.2302742"
       gradientUnits="userSpaceOnUse"
       gradientTransform="matrix(1.6044074,0,0,1.5859698,-1.4734335,-9.0529675)" />
    <linearGradient
       inkscape:collect="always"
       xlink:href="#linearGradient3473"
       id="linearGradient4355-2-8"
       x1="-16.120106"
       y1="0.46894097"
       x2="-0.81032044"
       y2="12.572748"
       gradientUnits="userSpaceOnUse"
       gradientTransform="matrix(0.70828848,0,0,0.55938517,11.473979,-0.10075031)" />
    <linearGradient
       inkscape:collect="always"
       xlink:href="#linearGradient3473"
       id="linearGradient4355-2-8-6"
       x1="-16.120106"
       y1="0.46894097"
       x2="-0.81032044"
       y2="12.572748"
       gradientUnits="userSpaceOnUse"
       gradientTransform="matrix(0.70828848,0,0,0.55938517,11.473979,-0.10075031)" />
  </defs>
  <sodipodi:namedview
     stroke="#ef2929"
     fill="#eeeeec"
     pagecolor="#ffffff"
     bordercolor="#666666"
     borderopacity="0.25490196"
     inkscape:pageopacity="0.0"
     inkscape:pageshadow="2"
     inkscape:zoom="1"
     inkscape:cx="-14.198652"
     inkscape:cy="-5.1663457"
     inkscape:current-layer="layer1"
     showgrid="false"
     inkscape:grid-bbox="true"
     inkscape:document-units="px"
     inkscape:showpageshadow="false"
     inkscape:window-width="872"
     inkscape:window-height="659"
     inkscape:window-x="403"
     inkscape:window-y="296"
     width="32px"
     height="32px"
     id="namedview73" />
  <metadata
     id="metadata4">
    <rdf:RDF>
      <cc:Work
         rdf:about="">
        <dc:format>image/svg+xml</dc:format>
        <dc:type
           rdf:resource="http://purl.org/dc/dcmitype/StillImage" />
        <dc:creator>
          <cc:Agent>
            <dc:title>Jakub Steiner</dc:title>
          </cc:Agent>
        </dc:creator>
        <dc:source>http://jimmac.musichall.cz</dc:source>
        <cc:license
           rdf:resource="http://creativecommons.org/licenses/by-sa/2.0/" />
        <dc:title></dc:title>
      </cc:Work>
      <cc:License
         rdf:about="http://creativecommons.org/licenses/by-sa/2.0/">
        <cc:permits
           rdf:resource="http://web.resource.org/cc/Reproduction" />
        <cc:permits
           rdf:resource="http://web.resource.org/cc/Distribution" />
        <cc:requires
           rdf:resource="http://web.resource.org/cc/Notice" />
        <cc:requires
           rdf:resource="http://web.resource.org/cc/Attribution" />
        <cc:permits
           rdf:resource="http://web.resource.org/cc/DerivativeWorks" />
        <cc:requires
           rdf:resource="http://web.resource.org/cc/ShareAlike" />
      </cc:License>
    </rdf:RDF>
  </metadata>
  <g
     id="layer1"
     inkscape:label="Layer 1"
     inkscape:groupmode="layer"
     transform="translate(0,8)">
    <g
       id="g4428"
       transform="rotate(-90,12,3.9503918)">
      <rect
         y="-7.9976063"
         x="0"
         height="23.895996"
         width="24"
         id="rect4273"
         style="opacity:0;fill:#000000;fill-opacity:1;stroke:none;stroke-width:0.61922789;stroke-miterlimit:4;stroke-dasharray:none;stroke-opacity:1" />
      <g
         transform="matrix(1.6119907,0,0,-1.4925417,0.1431726,23.920414)"
         id="g4173-2" />
      <g
         transform="matrix(1.1016893,0,0,0.81351157,16.633402,-8.1441799)"
         id="g4326-1-5">
        <path
           sodipodi:nodetypes="cscscscscccccc"
           style="opacity:1;fill:url(#linearGradient4355-2-8);fill-opacity:1;stroke:#555753;stroke-width:0.47580397;stroke-miterlimit:4;stroke-dasharray:none;stroke-opacity:1"
           d="m 8.3476562,0.43374531 c 0,0 -1.577383,0.0639087 -2.0585937,0.48242188 C 5.3925784,1.6958473 5.5253906,3.8203125 5.5253906,3.8203125 c 0,0 -0.1159983,2.2652449 0.7636719,3.0214844 0.4952643,0.4257715 2.109375,0.4824219 2.109375,0.4824219 0,-10e-8 1.7641675,-0.02518 2.3125005,-0.4824219 0.835865,-0.6970091 0.738281,-2.8203125 0.738281,-2.8203125 0,0 0.222677,-2.2847032 -0.738281,-3.10531721 C 10.158382,0.44431037 8.3476562,0.43374531 8.3476562,0.43374531 Z M 7.2092898,2.240386 h 2.5716451 v 3.2967234 l -2.5716451,0 z"
           transform="matrix(1.4118541,0,0,1.787677,-16.199584,0.18010901)"
           id="rect4317-8-2"
           inkscape:connector-curvature="0" />
      </g>
      <g
         transform="matrix(1.1016893,0,0,0.81351157,16.633402,4.8558312)"
         id="g4326-1-5-5">
        <path
           sodipodi:nodetypes="cscscscscccccc"
           style="opacity:1;fill:url(#linearGradient4355-2-8-6);fill-opacity:1;stroke:#555753;stroke-width:0.47580397;stroke-miterlimit:4;stroke-dasharray:none;stroke-opacity:1"
           d="m 8.3476562,0.23632812 c 0,0 -1.577383,0.0639087 -2.0585937,0.48242188 -0.8964841,0.7796801 -0.7636719,3.1015625 -0.7636719,3.1015625 0,0 -0.1159983,2.0678277 0.7636719,2.8240672 0.4952643,0.4257715 2.109375,0.4824219 2.109375,0.4824219 0,-1e-7 1.7641675,-0.02518 2.3125005,-0.4824219 0.835865,-0.6970091 0.738281,-2.6228953 0.738281,-2.6228953 0,0 0.222677,-2.4821204 -0.738281,-3.3027344 C 10.158382,0.24689318 8.3476562,0.23632812 8.3476562,0.23632812 Z M 7.2092898,2.0429688 H 9.7809349 V 5.3396922 H 7.2092898 Z"
           transform="matrix(1.4118541,0,0,1.787677,-16.199584,0.18010901)"
           id="rect4317-8-2-2"
           inkscape:connector-curvature="0" />
      </g>
      <rect
         y="-1.1012098"
         x="10.89879"
         height="10.202419"
         width="2.2024188"
         id="rect4357"
         style="opacity:1;fill:url(#linearGradient4397);fill-opacity:1;stroke:#555753;stroke-width:0.79758096;stroke-linejoin:round;stroke-miterlimit:4;stroke-dasharray:none;stroke-opacity:1" />
    </g>
  </g>
</svg>
